packages/radix-icons/twoTone/15/caret-up.svg

<svg width="15" height="15" fill="none" xmlns="http://www.w3.org/2000/svg">
  <path
    fill-rule="evenodd"
    clip-rule="evenodd"
    d="M4.54289 8.45711C4.15237 8.06658 4.15237 7.43342 4.54289 7.04289L6.79289 4.79289C6.98043 4.60536 7.23478 4.5 7.5 4.5C7.76522 4.5 8.01957 4.60536 8.20711 4.79289L10.4571 7.04289C10.8476 7.43342 10.8476 8.06658 10.4571 8.45711C10.0666 8.84763 9.43342 8.84763 9.04289 8.45711L7.5 6.91421L5.95711 8.45711C5.56658 8.84763 4.93342 8.84763 4.54289 8.45711Z"
    fill="currentColor"
    opacity=".2"
  />
  <path
    fill-rule="evenodd"
    clip-rule="evenodd"
    d="M4.93179 8.0682C4.75605 7.89247 4.75605 7.60754 4.93179 7.43181L7.18179 5.18181C7.26618 5.09741 7.38064 5.05 7.49999 5.05C7.61933 5.05 7.73379 5.09741 7.81819 5.18181L10.0682 7.43181C10.2439 7.60754 10.2439 7.89247 10.0682 8.0682C9.89245 8.24394 9.60753 8.24394 9.43179 8.0682L7.49999 6.1364L5.56819 8.0682C5.39245 8.24394 5.10753 8.24394 4.93179 8.0682Z"
    fill="currentColor"
  />
</svg>

<svg width="15" height="15" fill="none" xmlns="http://www.w3.org/2000/svg">
  <path
    fill-rule="evenodd"
    clip-rule="evenodd"
    d="M4.543 8.457a1 1 0 010-1.414l2.25-2.25a1 1 0 011.414 0l2.25 2.25a1 1 0 01-1.414 1.414L7.5 6.914 5.957 8.457a1 1 0 01-1.414 0z"
    fill="currentColor"
    opacity=".2"
  />
  <path
    fill-rule="evenodd"
    clip-rule="evenodd"
    d="M4.932 8.068a.45.45 0 010-.636l2.25-2.25a.45.45 0 01.636 0l2.25 2.25a.45.45 0 01-.636.636L7.5 6.136 5.568 8.068a.45.45 0 01-.636 0z"
    fill="currentColor"
  />
</svg>
